Sources/FrostedUI/Resources/Icons.xcassets/messages24.imageset/messages-24.svg

<svg width="24" height="24" viewBox="0 0 24 24" fill="none" xmlns="http://www.w3.org/2000/svg" data-fui-icon="true">
  <path
    d="M19.252 3C20.7706 3 22.002 4.2312 22.002 5.75V12.25C22.002 13.7688 20.7706 15 19.252 15H18.002V16.25C18.002 17.7688 16.7706 19 15.252 19H10.6953L6.36621 21.4053C6.13404 21.5343 5.85104 21.531 5.62207 21.3965C5.39304 21.2617 5.25195 21.0157 5.25195 20.75V19H4.75195C3.23318 19 2.00195 17.7688 2.00195 16.25V9.75C2.00195 8.23122 3.23317 7 4.75195 7H6.25195V5.75C6.25195 4.23122 7.48317 3 9.00195 3H19.252ZM4.75195 8.5C4.0616 8.5 3.50195 9.05964 3.50195 9.75V16.25C3.50195 16.9404 4.06159 17.5 4.75195 17.5H6.00195C6.41617 17.5 6.75195 17.8358 6.75195 18.25V19.4756L10.1377 17.5947L10.2236 17.5537C10.3119 17.5184 10.4063 17.5 10.502 17.5H15.252C15.9423 17.5 16.502 16.9404 16.502 16.25V14.2881C16.5013 14.2755 16.5 14.2628 16.5 14.25C16.5 14.2369 16.5013 14.2239 16.502 14.2109V9.75C16.502 9.05966 15.9423 8.5 15.252 8.5H4.75195ZM9.00195 4.5C8.3116 4.5 7.75195 5.05964 7.75195 5.75V7H15.252C16.7706 7 18.002 8.2312 18.002 9.75V13.5H19.252C19.9423 13.5 20.502 12.9404 20.502 12.25V5.75C20.502 5.05966 19.9423 4.5 19.252 4.5H9.00195Z"
    fill="currentColor"
  />
</svg>

<svg xmlns="http://www.w3.org/2000/svg" width="24" height="24" fill="none" data-fui-icon="true" viewBox="0 0 24 24"><path fill="currentColor" d="M19.252 3a2.75 2.75 0 0 1 2.75 2.75v6.5a2.75 2.75 0 0 1-2.75 2.75h-1.25v1.25a2.75 2.75 0 0 1-2.75 2.75h-4.557l-4.329 2.405a.75.75 0 0 1-1.114-.655V19h-.5a2.75 2.75 0 0 1-2.75-2.75v-6.5A2.75 2.75 0 0 1 4.752 7h1.5V5.75A2.75 2.75 0 0 1 9.002 3zm-14.5 5.5c-.69 0-1.25.56-1.25 1.25v6.5c0 .69.56 1.25 1.25 1.25h1.25a.75.75 0 0 1 .75.75v1.226l3.386-1.881.086-.041a.8.8 0 0 1 .278-.054h4.75c.69 0 1.25-.56 1.25-1.25v-1.962l-.002-.038.002-.04V9.75c0-.69-.56-1.25-1.25-1.25zm4.25-4c-.69 0-1.25.56-1.25 1.25V7h7.5a2.75 2.75 0 0 1 2.75 2.75v3.75h1.25c.69 0 1.25-.56 1.25-1.25v-6.5c0-.69-.56-1.25-1.25-1.25z"/></svg>
